X:1
T:Title
%%score { 1 | 2 }
L:1/8
M:6/8
K:G
V:1 treble nm="Grand Piano"
V:2 bass 
V:1
 z3 z2[Q:1/4=81] [B,D] | [B,D]>[B,E][B,F] [B,G]>[CA][DB] | [Ec]>[EB][^Dc] [=DB]3 | E>^DE [^CA]3 | %4
[M:7/8] F>ED d3 [CD]/[CD]/ |[M:3/4] [B,D]>[B,E] [B,F][B,G]- [B,G]/[CA]/[DB] | %6
 [Ec]>[EB] [^Dc] [=DB]3 | E>^D E [^CA]3 |[M:7/8] D>ED [B,G]3 G/F/ |[M:3/4] E>^D EF- F/D/B, | %10
 [^DB]>[DA] [EG] [DF]2 E/[DF]/ | G>F G[EA]- [EA]/[EG]/[EA] | %12
[M:7/8] [^DB]>[DA][DB] [=Dc]3 [CD]/[CD]/ |[M:3/4] [B,D]>[B,E] [B,F][B,G]- [B,G]/[CA]/[DB] | %14
 [Ec]>[EB] [^Dc] [=DB]3 | E>^D E [^CA]3 | D>E D [B,G]3 |] %17
V:2
 z3 z2 [G,,G,] | [G,,G,]>[G,,G,][G,,G,] [G,,D,]>[G,,D,][G,,D,] | [G,,G,]>[G,,G,][G,,G,] [G,,G,]3 | %3
 [C,G,C]>[C,G,C][C,G,C] [A,,G,]3 |[M:7/8] [D,A,C]>[D,G,C][D,F,C] [D,F,C]3 [A,,F,]/[A,,F,]/ | %5
[M:3/4] [G,,G,]>[G,,G,] [G,,G,][G,,D,]- [G,,D,]/[G,,D,]/[G,,D,] | %6
 [G,,G,]>[G,,G,] [G,,G,] [G,,G,]3 | [C,G,C]>[C,G,C] [C,G,C] [A,,G,]3 | %8
[M:7/8] [D,F,C]>[D,G,C][D,F,C] [G,,G,]3 [E,G,B,]/[E,A,B,]/ | %9
[M:3/4] [E,G,B,]>[E,G,B,] [E,G,B,][^D,A,B,]- [D,A,B,]/[D,A,B,]/[D,F,] | %10
 [B,,F,]>[B,,B,] [B,,B,] [B,,B,]2 [B,,G,]/[B,,A,]/ | %11
 [E,B,E]>[E,B,E] [E,B,E][C,C]- [C,C]/[C,C]/[C,E,] | %12
[M:7/8] [B,,F,]>[B,,F,][B,,F,] [A,,F,]3 [D,F,]/[D,F,]/ | %13
[M:3/4] [G,,G,]>[G,,G,] [G,,G,][G,,D,]- [G,,D,]/[G,,D,]/[G,,D,] | %14
 [G,,G,]>[G,,G,] [G,,G,] [G,,G,]3 | [C,G,C]>[C,G,C] [C,G,C] [A,,G,]3 | %16
 [D,F,C]>[D,G,C] [D,F,C] [G,,G,]3 |] %17

